public/assets/images/logo-telegram4.svg

<svg width="24" height="24" viewBox="0 0 24 24" fill="none" xmlns="http://www.w3.org/2000/svg">
<path d="M12 0C5.37058 0 0 5.37135 0 12C0 18.6286 5.37135 24 12 24C18.6294 24 24 18.6286 24 12C24 5.37135 18.6286 0 12 0ZM17.8939 8.22116L15.9244 17.5022C15.7788 18.1603 15.3871 18.3197 14.8405 18.0101L11.8405 15.799L10.3935 17.1925C10.2341 17.352 10.0986 17.4875 9.7889 17.4875L10.0018 14.4341L15.5613 9.4111C15.8036 9.19819 15.5079 9.07742 15.1881 9.29032L8.31716 13.6157L5.35587 12.6914C4.71252 12.4885 4.69781 12.048 5.49135 11.7383L17.0609 7.27665C17.5982 7.0831 18.0674 7.40748 17.8932 8.22039L17.8939 8.22116Z" fill="#C4CAE8"/>
</svg>

<svg xmlns="http://www.w3.org/2000/svg" width="24" height="24" fill="none"><path fill="#C4CAE8" d="M12 0C5.37 0 0 5.371 0 12s5.371 12 12 12c6.63 0 12-5.371 12-12S18.629 0 12 0Zm5.894 8.221-1.97 9.281c-.145.658-.537.818-1.083.508l-3-2.211-1.447 1.393c-.16.16-.295.296-.605.296l.213-3.054 5.56-5.023c.242-.213-.054-.334-.374-.12l-6.87 4.325-2.962-.925c-.643-.203-.658-.643.135-.953l11.57-4.461c.537-.194 1.006.13.832.943v.001Z"/></svg>
